X:1
T:James Gibb editions
T:Tenebrae factae sunt - Haydn M
T:#
%%score [ ( 1 2 ) ( 3 4 ) ]
L:1/8
Q:1/4=72
M:4/4
K:Eb
V:1 treble nm="Soprano Alto" snm="S A"
V:2 treble 
V:3 bass nm="Tenor Bass" snm="T B"
V:4 bass 
V:1
"^largo""^Michael Haydn\n(1737-1806)"!pp!"^Tenebrae factae sunt"!<(! E4 E2 E2 | G6!<)! G2 | %2
w: Te- ne- brae|fa- ctae|
 A4 z2!mf! A2 |!<(! B4 B2 B2 | c4 c4!<)! |!f! _d4 _D2 D2 |!p! _D4 C4 | z2!<(! c2 c2 c2!<)! | %8
w: sunt, dum|cru- ci- fi-|xis- sent|Je- sum Ju\-|dae- i,|et cir- ca|
!>(! c6 B2 | B4 A4!>)! | =A2!<(! A2 A2 A2 | B4 B4!<)! |!f! e6 e2 | e4 d4 | !fermata!z8 | %15
w: ho- ram|no- nam|ex- cla- ma- vit|Je- sus|vo- ce|ma- gna:||
!p!!<(! F4 G4 | A8!<)! | G4 z2 G2 | (G2 F2) F4 |!<(! F4 G2 G2!<)! |!>(! A8 | G8!>)! | !fermata!z8 | %23
w: De- us|me-|us, ut|quid * me|de- re- li-|qui-|sti!||
!pp!!<(! e8 | d4 c4!<)! |!>(! B4 =A4 | !courtesy!_A6 A2!>)! |!pp! A8 | z4!f!!<(! e4 | %29
w: ||||||
!>(! e4!<)!!>)!!p! E4 | !fermata!z8 |!pp![Q:1/4=69]!<(! (E8 | %32
w: |||
"^rit."[Q:1/4=64]!>(! F7)!<)!!>)![Q:1/4=62] E |[Q:1/4=62]!pp! E8 || %34
w: ||
[Q:1/4=62]"^più vivo"[Q:1/4=62] z2!p![Q:1/4=80]!<(! G2 G2 B2!<)! | B4 =A4 |!mf!!<(! B6 B2 | %37
w: Ex- cla- mans|Je- sus|vo- ce|
 c2 c2!<)!!f! ^c4 | d4"^largo" z4 |!pp![Q:1/4=72]!<(! B8 | =A8!<)! | z2!mf!!<(! e2 e2 e2!<)! | %42
w: ma- gna a-|it:|Pa-|ter,|in ma- nus|
 e4 d2 c2 |[Q:1/4=72][Q:1/4=72]!>(! !>!c4 B4!>)! |!p! _A4 A2 G2 |!>(! (G4 ^F4)!>)! | !fermata!G8 | %47
w: tu- as com|men- do|spi- ri- tum|me\- *|um.|
!pp!!<(! e8 | d4 c4!<)! | _B4 =A4 |!>(! _A6 A2!>)! |!pp! A8 | z4!f!!<(! e4 |!>(! e4!<)!!p! E4!>)! | %54
w: Et|in- cli-|na- to|ca- pi-|te|e-|mi- sit|
 !fermata!z8 |!pp![Q:1/4=68]!<(! (E8"^molto rit." |[Q:1/4=63]!>(! F7!<)![Q:1/4=60] E)!>)! | %57
w: |spi\-|* ri-|
[Q:1/4=60]!pp! E8 |] %58
w: tum.|
V:2
 B,4 B,2 B,2 | E6 E2 | E4 z2 C2 | _D4 D2 G2 | (A2 E2) C4 | B,4 B,2 B,2 | B,4 A,4 | z2 E2 E2 E2 | %8
w: ||||||||
 G6 G2 | G4 F4 | F2 F2 F2 F2 | F4 F4 | F6 F2 | F4 F4 | x4 x4 | D4 E4 | F8 | E4 z2 E2 | E4 E4 | %19
w: |||||||||||
 D4 E2 E2 | F8 | E8 | x4 x4 | E8 | A4 G4 | F4 E4 | D6 D2 | D8 | z4 C4 | C4 C4 | x4 x4 | (B,8 | %32
w: ||||Et|in- cli-|na- to|ca- pi-|te|e-|mi- sti||spi\-|
 D4) D4 | E8 || z2 E2 D2 ^C2 | D4 D4 | (D2 G4) G2 | G2 B2 G4 | ^F4 !fermata!z4 | D8 | D8 | %41
w: * ri-|tum.||||||||
 z2 G2 G2 G2 | =A4 A2 A2 | G4 G4 | E4 E2 E2 | D8 | D8 | E8 | A4 G4 | F4 E4 | D6 D2 | D8 | z4 C4 | %53
w: ||||||||||||
 C4 C4 | x4 x4 | (B,8 | D4 D4) | x4 x4 |] %58
w: |||||
V:3
!pp! G,4 G,2 G,2 | B,6 B,2 | A,4 z2!mf! E,2 | G,4 G,2 _D2 | (C2 A,2) E,4 |!f! E,4 E,2 E,2 | %6
 E,4 E,4 | z2 A,2 A,2 C2 | C6 C2 | C4 C4 | C2 C2 C2 C2 | B,4 D4 | C6 C2 | C4 B,4 | !fermata!z8 | %15
 B,4 B,4 | B,8 | B,4 z2 B,2 | C4 C4 | B,4 B,2 B,2 | B,8 | B,8 | !fermata!z8 |!mp! B,8 | =B,4 C4 | %25
 F,4 F,4 | F,6 F,2 | F,8 | z4 _G,4 | _G,4 G,4 | !fermata!z8 | (!courtesy!=G,8 | A,4) A,4 | G,8 || %34
 z2 B,2 B,2 G,2 | G,4 ^F,4 | (G,2 D4) D2 | E2 G,2 (B,2 =A,2) | =A,4 z4 | G,8 | ^F,8 | z2 C2 C2 C2 | %42
 C4 D2 E2 | E4 D4 | C4 C2 C2 | =A,8 | G,8 | B,8 | =B,4 C4 |"^98GL" F,4 F,4 | F,6 F,2 | F,8 | %52
 z4 _G,4 |"^1-" _G,4 G,4 | !fermata!z8 | (!courtesy!=G,8 | A,4 A,4) | G,8 |] %58
V:4
 E,4 E,2 E,2 | _D,6 D,2 | C,4 z2 C,2 | B,,4 B,,2 B,,2 | A,,4 A,,4 | G,,4 G,,2 G,,2 | A,,4 A,,4 | %7
 z2 A,,2 A,,2 A,2 | =E,6 E,2 | F,4 F,4 | !courtesy!_E,2 E,2 E,2 E,2 | D,4 D,4 | =A,,6 =A,2 | %13
 B,4 B,,4 | x4 x4 | B,,4 E,4 | D,8 | E,4 z2 G,,2 | A,,4 =A,,4 | B,,4 E,2 E,2 | D,8 | E,8 | x4 x4 | %23
 G,8 | F,4 E,4 | D,4 C,4 | B,,6 B,,2 | B,,8 | z4 =A,,4 | =A,,4 A,,4 | x4 x4 | B,,8- | B,,4 B,,4 | %33
 E,8 || z2 E,2 E,2 E,2 | D,4 D,4 | G,6 G,2 | E,2 E,2 E,4 | D,4 !fermata!z4 | G,,8 | D,8 | %41
 z2 C,2 C,2 C2 | ^F,4 F,2 F,2 | !>!G,4 G,4 | C,4 C,2 C,2 | D,8 | !fermata!G,,8 | G,8 | F,4 E,4 | %49
 D,4 C,4 | B,,6 B,,2 | B,,8 | z4 =A,,4 | =A,,4 A,,4 | x4 x4 | B,,8- | B,,4 B,,4 | E,8 |] %58

